icons/svgs/caret-down-outline.svg

<svg width="24" height="24" viewBox="0 0 24 24" fill="none" xmlns="http://www.w3.org/2000/svg">
<path d="M12.4999 14.8906L15.9764 11.375H8.98423L12.4999 14.8906ZM13.3592 16.6484C12.8905 17.1562 12.0702 17.1562 11.6014 16.6484L6.60141 11.6484C6.24985 11.2969 6.13266 10.75 6.32798 10.2812C6.52329 9.8125 6.99204 9.5 7.49985 9.5H17.4999C17.9686 9.5 18.4374 9.8125 18.6327 10.2812C18.828 10.75 18.7108 11.2969 18.3592 11.6484L13.3592 16.6484Z" fill="black"/>
</svg>

<svg xmlns="http://www.w3.org/2000/svg" width="24" height="24" fill="currentColor" class="icon-caret-down-outline" viewBox="0 0 24 24">
  <mask id="a" width="13" height="9" x="6" y="9" maskUnits="userSpaceOnUse" style="mask-type:alpha">
    <path d="m12.5 14.89 3.476-3.515H8.984zm.86 1.758a1.205 1.205 0 0 1-1.759 0l-5-5a1.26 1.26 0 0 1-.273-1.367A1.28 1.28 0 0 1 7.5 9.5h10c.469 0 .937.313 1.133.781a1.26 1.26 0 0 1-.274 1.367z"/>
  </mask>
  <g mask="url(#a)">
    <path d="M0 0h24v24H0z"/>
  </g>
</svg>
